X:1
T:Edmeston, 86.866
T:Edmeston, 86.866
T:Isaac Baker Woodbury (1819-1858)
T:Public Domain Courtesy of the Cyber Hymnal™
C:Isaac Baker Woodbury (1819-1858)
Z:Public Domain
Z:Courtesy of the Cyber Hymnal™
%%score ( 1 2 ) ( 3 4 )
L:1/8
Q:1/4=95
M:2/4
K:C
V:1 treble 
V:2 treble 
V:3 bass 
V:4 bass 
V:1
 [CE]2 [CE][EG] | [CE]3 [CE] | [DF]2 [B,D]2 | [CE]3 [EG] | (cG) ([FA][EG]) | [DG]2 [D^F]2 | %6
 [DG]2 z2 | [CE]2 [CE][EG] | [CE]3 [CE] | ([DF][CE]) ([DF][EG]) | [CE]3 G | ([FA]>[GB] [Ac])[FA] | %12
 ([EG][CE]) [B,D]2 | [CE]3 [CE] | [B,D]3 [CE] | ([EG][DF]) ([CE][B,D]) | [CE]4 |] %17
V:2
 x4 | x4 | x4 | x4 | E2 x2 | x4 | x4 | x4 | x4 | x4 | x3 G | x4 | x4 | x4 | x4 | x4 | x4 |] %17
V:3
 [C,G,]2 [C,G,][C,C] | [C,G,]3 [C,G,] | [G,,G,]2 [G,,G,]2 | [C,G,]3 [C,C] | [C,C]2 [C,C]2 | %5
 [D,B,]2 [D,A,]2 | [G,,B,]2 z2 | [C,G,]2 [C,G,][C,C] | [C,G,]3 [C,G,] | G,2 [G,,G,]2 | %10
 [C,G,]3 [E,B,] | [F,C]3 [F,C] | (CG,) [G,,G,]2 | [C,G,]3 [C,G,] | [G,,G,]3 [G,,G,] | %15
 [G,,G,]2 [G,,G,]2 | [C,G,]4 |] %17
V:4
 x4 | x4 | x4 | x4 | x4 | x4 | x4 | x4 | x4 | G,2 x2 | x4 | x4 | G,2 x2 | x4 | x4 | x4 | x4 |] %17

